X: 18
T: No_26_Opening_Song_of_Flower_Dance.krn
N: Derived from No_26_Opening_Song_of_Flower_Dance.krn
%%abc-version 2.0
%%abcx-abcm2ps-target-version 5.9.1 (29 Sep 2008)
%%abc-creator hum2abc beta
%%abcx-conversion-date 2019/03/15 08:25:35
%%humdrum-veritas 682906416
%%humdrum-veritas-data 1643276058
%%linebreak <none>
%%barnumbers 0
L: 1/4
M: 2/4
%%staves {1 2}
V: 1 clef=treble
V: 2 clef=bass
K: B
[V:1] [K:clef=treble][M:2/4]FF | 
[V:2] [K:clef=bass][M:2/4]G,,z | 
[V:1] FF | 
[V:2] G,,z | 
[V:1] FF | 
[V:2] G,,z | 
[V:1] FF | 
[V:2] G,,z | 
[V:1] F/G/- G/D/ | 
[V:2] G,,z | 
[V:1] FD | 
[V:2] G,,z | 
[V:1] [M:3/4]F/D/- D/C/B, | 
[V:2] [M:3/4]G,,zG,, | 
[V:1] D/C/ D/B,/ B,/G,/ | 
[V:2] zG,,z | 
[V:1] [M:2/4]F,F, | 
[V:2] [M:2/4]G,,G,, | 
[V:1] F,F,/ z/ | 
[V:2] G,,G,, | 
[V:1] D/F/- F/D/ | 
[V:2] G,,z | 
[V:1] [M:3/4]FF/C/B, | 
[V:2] [M:3/4]G,,zG,, | 
[V:1] D/C/ D/B,/ B,/G,/ | 
[V:2] zG,,z | 
[V:1] [M:2/4]F,F, | 
[V:2] [M:2/4]G,,G,, | 
[V:1] F,F,/ z/ |]  
[V:2] G,,G,, |]  



